X:143
T:Trip to Chelmsford. THO5.143
M:6/8
L:1/8
B:Thompson's Complete Collection of 200 Favourite Dances Vol.5
F:https://www.libraryofdance.org/manuals/1780c-Thompson-Compleat-5.pdf
Z:vmp. Peter Dunk 2024
Q:3/8=100
K:A
A|aga fga|efd cBA|aga fga|ecA B3|
aga fga|efd cBA|BGB cAc|dBG A2:|
|:E|EcE dBd|cac ecA|EcE dBd|ecA B2E|
EcE dBd|cde fga|efd cdB|A3-A2:|
W:
W:Change sides, back again ./.
W:Right hands acreoos, lefthands back again ./:
W:Lead down the middle, up again, cast off :/.
W:Right and left at top :/:

